static/logos/jetbrains-glyph-color.svg

<svg width="50" height="50" viewBox="0 0 50 50" fill="none" xmlns="http://www.w3.org/2000/svg">
<g clip-path="url(#clip0_1_2284)">
<path d="M0.578125 0.38501H49.6166V49.4235H0.578125V0.38501Z" fill="black"/>
<path d="M4.8095 40.1925H23.1748V43.2694H4.8095V40.1925ZM4.61719 13.2694L6.0595 11.9233C6.44411 12.404 6.82873 12.6925 7.3095 12.6925C7.88642 12.6925 8.17488 12.3079 8.17488 11.5387V6.4425H10.3864V11.5387C10.3864 12.5002 10.0979 13.2694 9.61714 13.7502C9.13642 14.231 8.36719 14.5194 7.40565 14.5194C5.96334 14.6156 5.19411 14.0387 4.61719 13.2694ZM10.8671 6.53865H17.3094V8.36558H13.0787V9.61558H16.9248V11.3464H13.0787V12.5964H17.4056V14.5194H10.9634L10.8671 6.53865ZM20.1941 8.46173H17.7902V6.53865H24.8094V8.46173H22.4056V14.5194H20.1941V8.46173ZM4.8095 16.3464H8.94411C9.9056 16.3464 10.6748 16.6348 11.1556 17.0194C11.4441 17.3079 11.6364 17.7887 11.6364 18.3656C11.6364 19.3271 11.1556 19.8079 10.3864 20.1925C11.3479 20.481 11.9249 21.0579 11.9249 22.1156C11.9249 23.4617 10.771 24.3271 8.94411 24.3271H4.8095V16.3464ZM9.42488 18.8464C9.42488 18.3656 9.04026 18.1733 8.46334 18.1733H7.02103V19.6156H8.36719C9.04027 19.5194 9.42488 19.3271 9.42488 18.8464ZM8.65565 21.154H6.92488V22.5964H8.65565C9.32873 22.5964 9.71329 22.3079 9.71329 21.8271C9.71329 21.3464 9.32873 21.154 8.65565 21.154ZM12.3094 16.3464H16.0595C17.3095 16.3464 18.0788 16.6348 18.6557 17.2117C19.1365 17.6925 19.3287 18.2694 19.3287 19.0387C19.3287 20.2887 18.6557 21.0579 17.6942 21.5387L19.6172 24.3271H17.1171L15.4825 21.9233H14.521V24.3271H12.3094V16.3464ZM15.9633 20.1925C16.7325 20.1925 17.1171 19.8079 17.1171 19.231C17.1171 18.5579 16.6364 18.2694 15.9633 18.2694H14.521V20.1925H15.9633Z" fill="white"/>
<path d="M21.9225 16.3465H24.0379L27.4032 24.4234H24.9994L24.4225 22.9811H21.3456L20.7686 24.4234H18.4609L21.9225 16.3465ZM23.8456 21.1542L22.9802 18.9427L22.1148 21.1542H23.8456ZM27.6917 16.3465H29.9032V24.3273H27.6917V16.3465ZM30.4802 16.3465H32.4994L35.7686 20.5773V16.3465H37.9802V24.3273H36.0571L32.6917 20.0004V24.4234H30.4802V16.3465ZM38.1725 23.1734L39.4225 21.7311C40.1917 22.4042 41.0571 22.6927 42.0186 22.6927C42.5956 22.6927 42.9802 22.5004 42.9802 22.1158C42.9802 21.7311 42.6917 21.635 41.634 21.3465C39.9032 20.9619 38.6532 20.4811 38.6532 18.8465C38.6532 17.4042 39.8071 16.2504 41.7302 16.2504C43.0763 16.2504 44.134 16.635 44.9994 17.3081L43.8456 18.8465C43.0763 18.3658 42.3071 18.0773 41.634 18.0773C41.0571 18.0773 40.8648 18.2696 40.8648 18.5581C40.8648 18.9427 41.1532 19.0388 42.2109 19.3273C44.0379 19.7119 45.1917 20.2888 45.1917 21.8273C45.1917 23.4619 43.9417 24.4234 41.9225 24.4234C40.4802 24.5196 39.134 24.0388 38.1725 23.1734Z" fill="white"/>
</g>
<defs>
<clipPath id="clip0_1_2284">
<rect width="50" height="50" fill="white"/>
</clipPath>
</defs>
</svg>

<svg xmlns="http://www.w3.org/2000/svg" width="64" height="64" fill="none" viewBox="0 0 50 50"><g clip-path="url(#a)"><path fill="#000" d="M.578.385h49.039v49.038H.578V.386Z"/><path fill="#fff" d="M4.81 40.193h18.365v3.076H4.809v-3.076Zm-.193-26.924 1.442-1.346c.385.481.77.77 1.25.77.577 0 .866-.385.866-1.154V6.443h2.211v5.096c0 .961-.288 1.73-.769 2.211-.48.481-1.25.77-2.211.77-1.443.096-2.212-.481-2.789-1.25Zm6.25-6.73h6.442v1.827h-4.23v1.25h3.846v1.73h-3.846v1.25h4.327v1.923h-6.443l-.096-7.98Zm9.327 1.923H17.79V6.539h7.02v1.923h-2.404v6.057h-2.212V8.462ZM4.81 16.346h4.134c.962 0 1.73.289 2.212.673.288.289.48.77.48 1.347 0 .961-.48 1.442-1.25 1.826.962.289 1.539.866 1.539 1.924 0 1.346-1.154 2.211-2.98 2.211H4.808v-7.98Zm4.615 2.5c0-.48-.385-.673-.962-.673H7.021v1.443h1.346c.673-.097 1.058-.289 1.058-.77Zm-.77 2.308h-1.73v1.442h1.73c.674 0 1.058-.288 1.058-.769 0-.48-.384-.673-1.057-.673Zm3.654-4.808h3.75c1.25 0 2.02.289 2.597.866.48.48.673 1.057.673 1.827 0 1.25-.673 2.019-1.635 2.5l1.923 2.788h-2.5l-1.635-2.404h-.961v2.404h-2.212v-7.98Zm3.654 3.846c.77 0 1.154-.384 1.154-.961 0-.673-.48-.962-1.154-.962h-1.442v1.924h1.442Z"/><path fill="#fff" d="M21.922 16.346h2.116l3.365 8.077H25l-.576-1.442h-3.077l-.577 1.442H18.46l3.462-8.076Zm1.924 4.808-.866-2.211-.865 2.211h1.73Zm3.846-4.808h2.211v7.981h-2.211v-7.98Zm2.788 0h2.02l3.269 4.231v-4.23h2.211v7.98h-1.923L32.692 20v4.423H30.48v-8.076Zm7.692 6.827 1.25-1.442c.77.673 1.635.962 2.597.962.577 0 .961-.193.961-.577 0-.385-.288-.481-1.346-.77-1.73-.384-2.98-.865-2.98-2.5 0-1.442 1.153-2.596 3.076-2.596 1.346 0 2.404.385 3.27 1.058l-1.154 1.538c-.77-.48-1.539-.769-2.212-.769-.577 0-.77.193-.77.481 0 .385.29.48 1.347.77 1.827.384 2.98.96 2.98 2.5 0 1.634-1.25 2.595-3.269 2.595-1.442.097-2.788-.384-3.75-1.25Z"/></g><defs><clipPath id="a"><path fill="#fff" d="M0 0h50v50H0z"/></clipPath></defs></svg>
